packages/core/src/svgs/tokens/branded/MDT.svg

<svg width="24" height="24" viewBox="0 0 24 24" fill="none" xmlns="http://www.w3.org/2000/svg">
<path d="M11.7999 2.06263L5.12498 6.10008C5.36872 6.30632 5.60622 6.86257 5.64997 6.98756L11.3748 3.47511V7.7188C11.3748 7.94379 11.6749 8.2438 11.9999 8.25004C12.3249 8.25004 12.6249 7.93755 12.6249 7.7188V3.47511L18.3623 7.00006C18.4561 6.72507 18.781 6.21257 18.8748 6.11883C16.6942 4.7389 14.4961 3.38672 12.2812 2.06263C12.0311 1.96263 11.8561 2.01888 11.7999 2.06263ZM11.7999 21.9374L5.12498 17.8999C5.35435 17.6398 5.53249 17.3387 5.64997 17.0125L11.3748 20.5248V16.2811C11.3748 16.0563 11.6749 15.7561 11.9999 15.75C12.3249 15.75 12.6249 16.0624 12.6249 16.2811V20.5248L18.3623 16.9999C18.4561 17.275 18.781 17.7874 18.8748 17.8812C16.6942 19.2611 14.4961 20.6133 12.2812 21.9374C12.0311 22.0374 11.8561 21.9811 11.7999 21.9374ZM2.625 14.8125V9.21253C3.33749 9.45009 4.17499 9.31257 4.49997 9.21253V14.8125C3.88936 14.6229 3.23563 14.6229 2.625 14.8125ZM19.4998 14.8125V9.21253C20.2122 9.45009 21.0497 9.31257 21.3748 9.21253V14.8125C20.7642 14.6229 20.1104 14.6229 19.4998 14.8125ZM10.7749 12.6124L4.84997 9.06254C5.34332 8.65146 5.68264 8.08521 5.81246 7.45631L11.7374 11.0063C11.2277 11.4032 10.8845 11.9759 10.7749 12.6124ZM13.2998 12.6124L19.2311 9.06254C18.7377 8.65146 18.3984 8.08521 18.2686 7.45631L12.3373 11.0063C13.0373 11.5687 13.2749 12.3125 13.2998 12.6124Z" fill="#BBE3FF"/>
<path d="M20.4374 8.87504C21.3005 8.87504 22 8.17549 22 7.31256C22 6.44962 21.3005 5.75008 20.4374 5.75008C19.5746 5.75008 18.875 6.44962 18.875 7.31256C18.875 8.17549 19.5746 8.87504 20.4374 8.87504Z" fill="white"/>
<path d="M20.4374 18.2499C21.3005 18.2499 22 17.5504 22 16.6874C22 15.8245 21.3005 15.125 20.4374 15.125C19.5746 15.125 18.875 15.8245 18.875 16.6874C18.875 17.5504 19.5746 18.2499 20.4374 18.2499Z" fill="white"/>
<path d="M3.56248 18.2499C4.42541 18.2499 5.12497 17.5504 5.12497 16.6874C5.12497 15.8245 4.42541 15.125 3.56248 15.125C2.69954 15.125 2 15.8245 2 16.6874C2 17.5504 2.69954 18.2499 3.56248 18.2499Z" fill="white"/>
<path d="M3.56248 8.87504C4.42541 8.87504 5.12497 8.17549 5.12497 7.31256C5.12497 6.44962 4.42541 5.75008 3.56248 5.75008C2.69954 5.75008 2 6.44962 2 7.31256C2 8.17549 2.69954 8.87504 3.56248 8.87504Z" fill="white"/>
<path d="M11.9872 13.5749C12.8503 13.5749 13.5498 12.8754 13.5498 12.0125C13.5498 11.1496 12.8503 10.4501 11.9872 10.4501C11.1244 10.4501 10.4248 11.1496 10.4248 12.0125C10.4248 12.8754 11.1244 13.5749 11.9872 13.5749Z" fill="white"/>
</svg>

<svg xmlns="http://www.w3.org/2000/svg" width="24" height="24" fill="none" viewBox="0 0 24 24">
    <path fill="#BBE3FF" d="M11.8 2.063 5.125 6.1c.244.206.481.763.525.888l5.725-3.513V7.72c0 .225.3.525.625.531.325 0 .625-.312.625-.531V3.475L18.362 7c.094-.275.419-.787.513-.881a305 305 0 0 0-6.594-4.056c-.25-.1-.425-.044-.481 0m0 19.874L5.125 17.9c.23-.26.407-.561.525-.887l5.725 3.512V16.28c0-.225.3-.525.625-.531.325 0 .625.312.625.531v4.244L18.362 17c.094.275.419.787.513.881a305 305 0 0 1-6.594 4.056c-.25.1-.425.044-.481 0m-9.175-7.125v-5.6c.712.238 1.55.1 1.875 0v5.6a3.16 3.16 0 0 0-1.875 0m16.875 0v-5.6c.712.238 1.55.1 1.875 0v5.6a3.16 3.16 0 0 0-1.875 0m-8.725-2.2L4.85 9.062a2.83 2.83 0 0 0 .962-1.606l5.925 3.55a2.6 2.6 0 0 0-.962 1.606m2.525 0 5.931-3.55a2.84 2.84 0 0 1-.962-1.606l-5.932 3.55c.7.563.938 1.306.963 1.606"/>
    <path fill="#fff" d="M20.437 8.875a1.562 1.562 0 1 0 0-3.125 1.562 1.562 0 0 0 0 3.125m0 9.375a1.562 1.562 0 1 0 0-3.125 1.562 1.562 0 0 0 0 3.125m-16.875 0a1.562 1.562 0 1 0 0-3.125 1.562 1.562 0 0 0 0 3.125m0-9.375a1.562 1.562 0 1 0 0-3.125 1.562 1.562 0 0 0 0 3.125m8.425 4.7a1.562 1.562 0 1 0 0-3.125 1.562 1.562 0 0 0 0 3.125"/>
</svg>
